src/images/app-icons/light-theme/CloudObjectStorage.svg

<svg xmlns="http://www.w3.org/2000/svg" viewBox="0 0 32 32"><defs><linearGradient id="CloudObjectStorage_svg__a" x1="827.5" y1="4690.5" x2="838.5" y2="4690.5" gradientTransform="translate(-823.5 -4669.5)" gradientUnits="userSpaceOnUse"><stop offset=".1"/><stop offset=".888" stop-opacity="0"/></linearGradient><linearGradient id="CloudObjectStorage_svg__c" y1="32" x2="32" gradientUnits="userSpaceOnUse"><stop offset=".1" stop-color="#a56eff"/><stop offset=".9" stop-color="#0f62fe"/></linearGradient><mask id="CloudObjectStorage_svg__b" x="0" y="0" width="32" height="32" maskUnits="userSpaceOnUse"><circle cx="7" cy="25" r="1" fill="#fff"/><path d="M28 20h-2v2h2v6H4v-6h10v-2H4a2 2 0 00-2 2v6a2 2 0 002 2h24a2 2 0 002-2v-6a2 2 0 00-2-2z" fill="#fff"/><path transform="rotate(180 9.5 21)" fill="url(#CloudObjectStorage_svg__a)" d="M4 19h11v4H4z"/></mask></defs><g data-name="Layer 2"><g data-name="Light theme icons"><g mask="url(#CloudObjectStorage_svg__b)"><path fill="url(#CloudObjectStorage_svg__c)" d="M0 0h32v32H0z"/></g><path d="M18 10h-8V2h8zm-6-2h4V4h-4zM22 14h-6v8h8v-6h6V8h-8zm0 6h-4v-4h4zm6-10v4h-4v-4z" fill="#001d6c"/></g></g></svg>

<svg xmlns="http://www.w3.org/2000/svg" xmlns:xlink="http://www.w3.org/1999/xlink" viewBox="0 0 32 32"><defs><style>.cls-1{fill:#fff;}.cls-2{fill:url(#linear-gradient);}.cls-3{mask:url(#mask);}.cls-4{fill:url(#linear-gradient-2);}.cls-5{fill:#001d6c;}</style><linearGradient id="linear-gradient" x1="827.5" y1="4690.5" x2="838.5" y2="4690.5" gradientTransform="translate(-823.5 -4669.5)" gradientUnits="userSpaceOnUse"><stop offset="0.1"/><stop offset="0.888" stop-opacity="0"/></linearGradient><mask id="mask" x="0" y="0" width="32" height="32" maskUnits="userSpaceOnUse"><circle id="node" class="cls-1" cx="7" cy="25" r="1"/><path id="storage" class="cls-1" d="M28,20H26v2h2v6H4V22H14V20H4a2,2,0,0,0-2,2v6a2,2,0,0,0,2,2H28a2,2,0,0,0,2-2V22A2,2,0,0,0,28,20Z"/><rect class="cls-2" x="4" y="19" width="11" height="4" transform="translate(19 42) rotate(180)"/></mask><linearGradient id="linear-gradient-2" y1="32" x2="32" gradientUnits="userSpaceOnUse"><stop offset="0.1" stop-color="#a56eff"/><stop offset="0.9" stop-color="#0f62fe"/></linearGradient></defs><g id="Layer_2" data-name="Layer 2"><g id="Light_theme_icons" data-name="Light theme icons"><g class="cls-3"><rect class="cls-4" width="32" height="32"/></g><path id="data" class="cls-5" d="M18,10H10V2h8ZM12,8h4V4H12Z"/><path class="cls-5" d="M22,14H16v8h8V16h6V8H22Zm0,6H18V16h4Zm6-10v4H24V10Z"/></g></g></svg>
